src/components/icons/x.svg

<svg width="32" height="32" viewBox="0 0 32 32" fill="none" xmlns="http://www.w3.org/2000/svg">
<path d="M16 15.293L20.6465 10.6466L21.3536 11.3537L16.7071 16.0001L21.3536 20.6466L20.6465 21.3537L16 16.7073L11.3536 21.3537L10.6465 20.6466L15.2929 16.0001L10.6465 11.3538L11.3536 10.6467L16 15.293Z" fill="black"/>
</svg>

<svg xmlns="http://www.w3.org/2000/svg" fill="none" viewBox="0 0 32 32"><path fill="currentColor" d="m16 15.293 4.646-4.646.708.707L16.707 16l4.647 4.647-.707.707L16 16.707l-4.646 4.647-.707-.707L15.293 16l-4.646-4.646.707-.707L16 15.293Z"/></svg>
